X:1
T:Let It Be Now
T:Let It Be Now
T:Mary L. Stocks
T:Stanley J. Henry, 1905
T:Public Domain Courtesy of the Cyber Hymnal™
T:Public Domain Courtesy of the Cyber Hymnal™
C:Mary L. Stocks
Z:Public Domain
Z:Courtesy of the Cyber Hymnal™
%%score ( 1 2 ) ( 3 4 )
L:1/8
Q:1/4=105
M:9/8
K:F
V:1 treble 
V:2 treble 
V:3 bass 
V:4 bass 
V:1
 [FA][FG][FA] | F3 [Fc]3 [FB][FA][FG] | [FA]3 F3 [Fd][Fe][Fd] | [Fc]3 [FA]2 F [DF][DE]F | %4
w: 1.~Let it be|now! The choice is be-|fore us; Come, while the|Sav- ior so ten- der- ly|
w: 2.~Let it be|now, if life is be-|gin- ning, Now on the|thres- hold of days yet to|
w: 3.~Let it be|now, tho’ years have been|squan- dered, Liv- ing for|this world in plea- sure or|
w: 4.~Let it be|now, tho’ life is de-|clin- ing, Feeb- ler the|step, and fast fail- ing the|
w: 5.~Let it be|now! Come, help- less, be-|liev- ing, Plead- ing His|mer- its, in low- li- ness|
 [EG]6 [GB][FA][EG] | [FA]3 [Fc]3 [Ff][Fe][Fd] | [Fc]3 [FA]3 [Fd][Fc][FB] | %7
w: yearns; Let it be|now, Heav’n’s joy- bells in|chor- us Ring out the|
w: be; Los- ing your|life, a new one you’re|win- ning, A life that|
w: sin; Par- don He|will, tho’ far you have|wan- dered, Grant you His|
w: sight; Why should you|lin- ger, hope- less, re-|pin- ing? Trust Him, He’ll|
w: bow; Par- don and|cleans- ing, new life re-|ceiv- ing, O let it|
 [FA]3 F2 [FA] [CG][CF][CE] | [CF]6 ||"^Refrain" [FB][FA][FG] | [FA]3 [Fc]3 [FB]F[FG] | [FA]6 |] %12
w: tid- ings— a lost one re-|turns!||||
w: will last thro’ e- ter- ni-|ty.||||
w: Spir- it— a new life with-|in.|Let it be|now, O let it be|now!|
w: grant you at e- ven- tide|light.||||
w: be now! Yes, let it be|now!||||
V:2
 x3 | F3 x6 | x3 F3 x3 | x5 F x F x | x9 | x9 | x9 | x3 F2 x4 | x6 || x3 | x7 F x | x6 |] %12
V:3
 [F,C][F,B,][F,C] | [F,A,]3 [F,A,]3 [F,D][F,C][F,B,] | [F,C]3 [F,A,]3 [B,,B,][B,,C][B,,B,] | %3
 [F,A,]3 [F,C]2 [F,A,] [G,=B,][G,B,][G,D] | [C,C]6 [C,C][C,C][C,C] | %5
 [F,C]3 [F,A,]3 [B,,B,][B,,C][B,,B,] | [F,A,]3 [F,C]3 B,[A,C][B,D] | %7
 C3 [C,A,]2 [C,C] [C,B,][C,A,][C,G,] | [F,A,]6 || [B,D][B,D][B,D] | %10
 [F,C]3 [F,_E]3 [B,,D][B,,D][B,,_D] | [F,C]6 |] %12
V:4
 x3 | x9 | x9 | x9 | x9 | x9 | x6 B, x2 | C3 x6 | x6 || x3 | x9 | x6 |] %12

